X:1
T:Title
%%score { ( 1 3 ) | ( 2 4 ) }
L:1/8
Q:1/4=100
M:4/4
K:G
V:1 treble nm="Grand Piano"
V:3 treble 
V:2 bass 
V:4 bass 
V:1
 [DB]2 [DB]2 [DB]3 [B,D] | [CE]2 [Ec]2 [DB]2 [DG]2 | [Fd]2 [FA]2 [Fd]3 [Ac] | z4 [FA]4[K:bass] | %4
w: B.~D.~Ackley * * *||||
 B2 B2 B3 [B,D] | [CE]2 [Ec]2 B2 G2 | F2 [FA]2 B3 e | d2 [E^c]2 [Fd]4 | FG [DAd]2 [DBd]3 [DGB] | %9
w: |||||
 FG [DAd]2 [DBd]2 [DGB]2 | ^DE [B,FB]2 [B,GB]3 [B,EG] | z4 [FA]4 | [B,D]2 [G,DG]2 F2 A2 | %13
w: ||||
 G2 B2 [FA][GB] [Ac]2 | d2 e2 d2 z A | [DGB]2 [CFA]2 [B,DG]4 |] %16
w: |||
V:2
 [G,,G,]2 [G,,G,]2 [G,,G,]3 [G,,G,] | [C,G,]2 [C,G,]2 [G,,G,]2 [G,B,]2 | %2
 [D,A,]2 [D,D]2 [D,A,]3 [D,D] | [G,D]2 [G,B,]2 [D,D]4 | [G,D]2 [G,D]2 [G,D]3 [G,,G,] | %5
 [C,G,]2 [C,G,]2 [G,D]2 [G,B,D]2 | [D,A,D]2 [D,D]2[K:treble] [G,DG]3 [G,B,G] | %7
 [A,F]2[K:bass] [A,,A,]2 [D,A,]4 | D,E, F,2 G,3 G, | D,E, F,2 G,2 G,2 | B,,C, ^D,2 E,3 E, | %11
 A,,2 A,,2 z2 C2 | G,2 B,,2 [D,A,D]2 [D,CD]2 | [G,B,D]2 [G,DG]2[K:bass] [D,D]2 [D,D]2 | %14
 [G,B,G]2 [G,CG]2 [G,B,G]2[K:bass] B,^C | D,2 D,2 G,4 |] %16
V:3
 x8 | x8 | x8 | [GB]2 [DG]2 z[K:bass] C,B,,G,, | x8 | x8 | x8 | x8 | [Dd]2 z2 z4 | [Dd]2 z2 z4 | %10
 [B,B]2 z2 z4 | [A,DF]2 [^CEG]2 D2 z2 | x8 | x8 | z4 z2 G2 | x8 |] %16
V:4
 x8 | x8 | x8 | x8 | x8 | x8 | x4[K:treble] x4 | x2[K:bass] x6 | x8 | x8 | x8 | z4 D,4 | x8 | %13
 x4[K:bass] x4 | z4 z2[K:bass] E,2 | x8 |] %16

